X: 36034
T: Scarborough Fair
R: waltz
M: 3/4
K: Edorian
E4E2|B2B2B2|F3 GF2|E6|
B4d2|e4d2|B2^c2A2|B4B2|
e4e2|d4B2|B2A2G2|F2<D2D2|
E4B2|A4G2|F2E2D2|E4-E/2x3/2|
x6|E4E2|B2B2B2|F3 GF2|
E6|B4d2|e4d2|B2^c2A2|
B4B2|e4e2|d4B2|B2A2G2|
F2<D2D2|E4B2|A4G2|F2E2D2|
E4-E/2


